X:1
T:The People United
N:Transposed
M:4/4
Q:1/4=100
L:1/8
K:Ab
(C|F.C) z (F A.F) z (A|.c).c.B.A (A.G) z (C|
A.F) z (c d.A) z (A|.B).B.G.c (A.F) (3:2:2 z2(C|
F2) (3:2:2 z2(F A2) (3:2:2 z2(A|(3:2:2 c2)(c (3:2:2 B2A G2) (3:2:2 z2(C|
F2) (3:2:2 z2(F A2) (3:2:2 z2(A|(3:2:2 c2)(c (3:2:2 B2A G2) (3:2:2 z2(c|
d2) (3:2:2 z2(A G2) (3:2:2 z2(d|(3:2:2 c2B (3:2:2 c2G F2) (3:2:2 z2(c| 
B2) (3:2:2 z2(F =E2) (3:2:2 z2B|(3:2:2 A2G (3:2:2 A2B (3:2:2 c2=B (3:2:2 c2e|
d2- (3:2:2 d2 A  G2- (3:2:2 G2 d|(3:2:2 c2 B (3:2:2 c2 G F2- (3:2:2 F2 c|
B2- (3:2:2 B2 F =E2- (3:2:2 =E2 B|(3:2:2 A2 G (3:2:2 F2 =E F2 (3:2:2 z2 z|

